flaticon/religion/church-1.svg

<svg xmlns="http://www.w3.org/2000/svg" width="32" height="32" viewBox="0 0 24 24">
    <path d="M 20.699219 18.933594 L 17.601562 15.449219 L 17.601562 12 C 17.765625 12 17.914062 11.898438 17.972656 11.742188 C 18.03125 11.585938 17.988281 11.410156 17.863281 11.300781 L 14.664062 8.5 C 14.589844 8.433594 14.496094 8.398438 14.398438 8.398438 L 14 8.398438 L 14 6.800781 C 14.148438 6.800781 14.289062 6.714844 14.355469 6.582031 C 14.425781 6.449219 14.414062 6.289062 14.324219 6.167969 L 12.398438 3.472656 L 12.398438 2.398438 L 13.601562 2.398438 C 13.820312 2.398438 14 2.222656 14 2 C 14 1.777344 13.820312 1.601562 13.601562 1.601562 L 12.398438 1.601562 L 12.398438 0.398438 C 12.398438 0.179688 12.222656 0 12 0 C 11.777344 0 11.601562 0.179688 11.601562 0.398438 L 11.601562 1.601562 L 10.398438 1.601562 C 10.179688 1.601562 10 1.777344 10 2 C 10 2.222656 10.179688 2.398438 10.398438 2.398438 L 11.601562 2.398438 L 11.601562 3.472656 L 9.675781 6.167969 C 9.585938 6.289062 9.574219 6.449219 9.644531 6.582031 C 9.714844 6.714844 9.851562 6.800781 10 6.800781 L 10 8.398438 L 9.601562 8.398438 C 9.503906 8.398438 9.410156 8.433594 9.335938 8.5 L 6.136719 11.300781 C 6.011719 11.410156 5.96875 11.585938 6.027344 11.742188 C 6.085938 11.898438 6.234375 12 6.398438 12 L 6.398438 15.449219 L 3.300781 18.933594 C 3.234375 19.007812 3.199219 19.101562 3.199219 19.199219 L 3.199219 23.601562 C 3.199219 23.820312 3.378906 24 3.601562 24 L 20.398438 24 C 20.621094 24 20.800781 23.820312 20.800781 23.601562 L 20.800781 19.199219 C 20.800781 19.101562 20.765625 19.007812 20.699219 18.933594 Z M 12 4.289062 L 13.222656 6 L 10.777344 6 Z M 10.800781 6.800781 L 13.199219 6.800781 L 13.199219 8.398438 L 10.800781 8.398438 Z M 9.75 9.199219 L 14.25 9.199219 L 16.535156 11.199219 L 7.464844 11.199219 Z M 16.800781 12 L 16.800781 15.199219 L 15.601562 15.199219 L 15.601562 14 C 15.601562 13.117188 14.882812 12.398438 14 12.398438 C 13.117188 12.398438 12.398438 13.117188 12.398438 14 L 12.398438 15.199219 L 11.601562 15.199219 L 11.601562 14 C 11.601562 13.117188 10.882812 12.398438 10 12.398438 C 9.117188 12.398438 8.398438 13.117188 8.398438 14 L 8.398438 15.199219 L 7.199219 15.199219 L 7.199219 12 Z M 14.800781 15.199219 L 13.199219 15.199219 L 13.199219 14 C 13.199219 13.558594 13.558594 13.199219 14 13.199219 C 14.441406 13.199219 14.800781 13.558594 14.800781 14 Z M 10.800781 15.199219 L 9.199219 15.199219 L 9.199219 14 C 9.199219 13.558594 9.558594 13.199219 10 13.199219 C 10.441406 13.199219 10.800781 13.558594 10.800781 14 Z M 5.601562 23.199219 L 5.601562 20.601562 C 5.601562 19.828125 6.226562 19.199219 7 19.199219 C 7.773438 19.199219 8.398438 19.828125 8.398438 20.601562 L 8.398438 23.199219 Z M 10.800781 23.199219 L 10.800781 19.199219 C 10.800781 18.539062 11.339844 18 12 18 C 12.660156 18 13.199219 18.539062 13.199219 19.199219 L 13.199219 23.199219 Z M 15.601562 23.199219 L 15.601562 20.601562 C 15.601562 19.828125 16.226562 19.199219 17 19.199219 C 17.773438 19.199219 18.398438 19.828125 18.398438 20.601562 L 18.398438 23.199219 Z M 20 23.199219 L 19.199219 23.199219 L 19.199219 20.601562 C 19.199219 19.386719 18.214844 18.398438 17 18.398438 C 15.785156 18.398438 14.800781 19.386719 14.800781 20.601562 L 14.800781 23.199219 L 14 23.199219 L 14 19.199219 C 14 18.097656 13.101562 17.199219 12 17.199219 C 10.898438 17.199219 10 18.097656 10 19.199219 L 10 23.199219 L 9.199219 23.199219 L 9.199219 20.601562 C 9.199219 19.386719 8.214844 18.398438 7 18.398438 C 5.785156 18.398438 4.800781 19.386719 4.800781 20.601562 L 4.800781 23.199219 L 4 23.199219 L 4 19.351562 L 6.980469 16 L 17.019531 16 L 20 19.351562 Z M 20 23.199219"/>
</svg>

<svg xmlns="http://www.w3.org/2000/svg" width="32" height="32" viewBox="0 0 24 24">
    <path d="M20.7 18.934l-3.098-3.485V12a.4.4 0 0 0 .262-.7l-3.2-2.8a.396.396 0 0 0-.266-.102H14V6.801a.401.401 0 0 0 .324-.633l-1.926-2.695V2.398h1.204a.398.398 0 1 0 0-.796h-1.204V.398a.398.398 0 1 0-.796 0v1.204h-1.204a.398.398 0 1 0 0 .796h1.204v1.075L9.676 6.168a.388.388 0 0 0-.031.414c.07.133.207.219.355.219v1.597h-.398a.396.396 0 0 0-.266.102l-3.2 2.8a.4.4 0 0 0 .262.7v3.45l-3.097 3.484a.396.396 0 0 0-.102.265v4.403c0 .218.18.398.403.398h16.796c.223 0 .403-.18.403-.398v-4.403a.396.396 0 0 0-.102-.265zM12 4.289L13.223 6h-2.446zm-1.2 2.512h2.4v1.597h-2.4zM9.75 9.199h4.5l2.285 2h-9.07zM16.8 12v3.2h-1.198V14c0-.883-.72-1.602-1.602-1.602-.883 0-1.602.72-1.602 1.602v1.2h-.796V14c0-.883-.72-1.602-1.602-1.602-.883 0-1.602.72-1.602 1.602v1.2H7.2V12zm-2 3.2h-1.6V14a.802.802 0 0 1 1.6 0zm-4 0H9.2V14a.802.802 0 0 1 1.6 0zm-5.198 8v-2.598A1.4 1.4 0 0 1 7 19.199a1.4 1.4 0 0 1 1.398 1.403v2.597zm5.199 0v-4c0-.66.539-1.2 1.199-1.2s1.2.54 1.2 1.2v4zm4.8 0v-2.598A1.4 1.4 0 0 1 17 19.199a1.4 1.4 0 0 1 1.398 1.403v2.597zm4.399 0h-.8v-2.598a2.202 2.202 0 0 0-2.2-2.204c-1.215 0-2.2.989-2.2 2.204v2.597H14v-4c0-1.101-.898-2-2-2-1.102 0-2 .899-2 2v4h-.8v-2.597A2.202 2.202 0 0 0 7 18.398c-1.215 0-2.2.989-2.2 2.204v2.597H4v-3.847L6.98 16h10.04L20 19.352zm0 0"/>
</svg>
